icons/tensorflow/tensorflow-line.svg

<svg xmlns="http://www.w3.org/2000/svg" xmlns:xlink="http://www.w3.org/1999/xlink" viewBox="0 0 128 128" width="128" height="128"><defs><path d="M54.74 128L32.9 115.32V40.55L0 59.56l.08-28.32L54.74 0v128zM59.65 0v128l21.84-12.68V79.31l16.49 9.53-.1-24.63-16.39-9.36v-14.3l32.89 19.01-.08-28.32L59.65 0z" id="a"/><path d="M54.74 128L32.9 115.32V40.55L0 59.56l.08-28.32L54.74 0v128zM59.65 0v128l21.84-12.68V79.31l16.49 9.53-.1-24.63-16.39-9.36v-14.3l32.89 19.01-.08-28.32L59.65 0z" id="b"/></defs><use xlink:href="#a" fill-opacity="0"/><use xlink:href="#a" fill-opacity="0" stroke="#000"/><g><use xlink:href="#b" fill-opacity="0"/><use xlink:href="#b" fill-opacity="0" stroke="#000"/></g></svg>

<?xml version="1.0" encoding="UTF-8" standalone="no"?>
<!DOCTYPE svg PUBLIC "-//W3C//DTD SVG 1.1//EN" "http://www.w3.org/Graphics/SVG/1.1/DTD/svg11.dtd">
<svg version="1.1" xmlns="http://www.w3.org/2000/svg" xmlns:xlink="http://www.w3.org/1999/xlink" preserveAspectRatio="xMidYMid meet" viewBox="-1.0042187499999997 -1.0017021276595557 118.38872340425536 132.00170212765954" width="114.39" height="128"><defs><path d="M54.74 128L32.9 115.32L32.9 40.55L0 59.56L0.08 31.24L54.74 0L54.74 128ZM59.65 0L59.65 128L81.49 115.32L81.49 79.31L97.98 88.84L97.88 64.21L81.49 54.85L81.49 40.55L114.38 59.56L114.3 31.24L59.65 0Z" id="a2rKZJa2fo"></path><path d="M54.74 128L32.9 115.32L32.9 40.55L0 59.56L0.08 31.24L54.74 0L54.74 128ZM59.65 0L59.65 128L81.49 115.32L81.49 79.31L97.98 88.84L97.88 64.21L81.49 54.85L81.49 40.55L114.38 59.56L114.3 31.24L59.65 0Z" id="anbUAJpq2"></path></defs><g><g><use xlink:href="#a2rKZJa2fo" opacity="1" fill="#000000" fill-opacity="0"></use><g><use xlink:href="#a2rKZJa2fo" opacity="1" fill-opacity="0" stroke="#000000" stroke-width="1" stroke-opacity="1"></use></g></g><g><use xlink:href="#anbUAJpq2" opacity="1" fill="#000000" fill-opacity="0"></use><g><use xlink:href="#anbUAJpq2" opacity="1" fill-opacity="0" stroke="#000000" stroke-width="1" stroke-opacity="1"></use></g></g></g></svg>
